!!!id: EG060
!!!page: 161-167
!!!COM: Anonymous
!!!LYR: Anonymous
!!!PTL@@FR: Chansons Populaires du Canada
!!!OTL@@FR: Adam et Eve
!!!PUB: G. E. Desbarats
!!!YEM:
!!!PDT: 1865
!!!SMA:
!!!OMD:
!!!AGN-Laforte:
!!!AGN-type:
!!!AGN-rime:
**kern
*clefG2
*k[f#]
*G:
*
*
=1
8d
8e
8f#
=2
4.g
=3
8a
8g
8a
=4
4.a
=5
8g
8b/
8a
!!LO:PB:g=original
=6
4g
8r
=7
8g
8a
8b/
=8
4cc
8b
=9
4a
8b/
=10
4a
8g
!!LO:PB:g=original
=11
8a
8g
8a
=12
4.a
=13
8g
8a
8b/
=14
4cc
8b
=15
4a
8b/
!!LO:PB:g=original
=16
4a
8g
=17
8a
8g
8f#
=18
4g
8r
==||
*
*
==|
!!!RWG: Time signature (clearly 3/8) absent in original, absence preserved
*-
